img/button/stackoverflow.svg

<svg xmlns="http://www.w3.org/2000/svg" width="568.908" height="673.194" viewBox="268.186 0 568.908 673.194" enable-background="new 268.186 0 568.908 673.194"><filter color-interpolation-filters="sRGB" id="a"><feGaussianBlur stdDeviation="1.71"/></filter><path fill="#FFF" d="M700.953 419.245l-294.072-62.062-12.322 59.055 294.072 61.609 12.322-58.602zm76.636-130.733L546.93 95.719l-38.318 46.283 230.659 192.792 38.318-46.282zm-46.883 59.655L458.273 220.892l-25.095 54.847 272.283 126.975 25.245-54.547zM657.826 0l-48.085 36.064 179.268 240.877 48.085-36.064L657.826 0zm30.805 492.874H388.098v59.656h300.533v-59.656zm59.655 120.214H328.292v-180.32h-60.106v240.426h540.208V432.768h-60.107v180.32z"/></svg>

<?xml version="1.0" encoding="utf-8"?>
<!-- Generator: Adobe Illustrator 16.0.0, SVG Export Plug-In . SVG Version: 6.00 Build 0)  -->
<!DOCTYPE svg PUBLIC "-//W3C//DTD SVG 1.1//EN" "http://www.w3.org/Graphics/SVG/1.1/DTD/svg11.dtd">
<svg version="1.1"
	 id="svg2408" xmlns:inkscape="http://www.inkscape.org/namespaces/inkscape" xmlns:rdf="http://www.w3.org/1999/02/22-rdf-syntax-ns#" xmlns:cc="http://creativecommons.org/ns#" xmlns:dc="http://purl.org/dc/elements/1.1/" xmlns:svg="http://www.w3.org/2000/svg"
	 xmlns="http://www.w3.org/2000/svg" xmlns:xlink="http://www.w3.org/1999/xlink" x="0px" y="0px" width="568.908px"
	 height="673.194px" viewBox="268.186 0 568.908 673.194" enable-background="new 268.186 0 568.908 673.194" xml:space="preserve">
<filter  color-interpolation-filters="sRGB" id="filter3174">
	<feGaussianBlur  stdDeviation="1.71" id="feGaussianBlur3176"></feGaussianBlur>
</filter>
<g id="layer2" display="none">
	<g id="rect3745" display="inline" opacity="0.9" filter="url(#filter3174)" enable-background="new    ">
		
			<linearGradient id="SVGID_1_" gradientUnits="userSpaceOnUse" x1="118.4998" y1="-462.0781" x2="118.4998" y2="-376.5825" gradientTransform="matrix(1.0059 0 0 -0.9942 -71.1991 -367.3987)">
			<stop  offset="0" style="stop-color:#000000"/>
			<stop  offset="1" style="stop-color:#000000;stop-opacity:0.5882"/>
		</linearGradient>
		<path fill="url(#SVGID_1_)" d="M11,7h74c3.312,0,6,2.687,6,6v73c0,3.313-2.688,6-6,6H11c-3.312,0-6-2.687-6-6V13
			C5,9.687,7.687,7,11,7z"/>
	</g>
</g>
<path fill="#FFFFFF" d="M700.953,419.245l-294.072-62.062l-12.322,59.055l294.072,61.609L700.953,419.245z M777.589,288.512
	L546.93,95.719l-38.318,46.283l230.659,192.792L777.589,288.512z M730.706,348.167L458.273,220.892l-25.095,54.847l272.283,126.975
	L730.706,348.167z M657.826,0l-48.085,36.064l179.268,240.877l48.085-36.064L657.826,0z M688.631,492.874H388.098v59.656h300.533
	V492.874z M748.286,613.088H328.292v-180.32h-60.106v240.426h540.208V432.768h-60.107V613.088z"/>
</svg>
